X:195
T:Träskodansen efter Per Nilsson Dahlberg
T:(SvL Skåne nr. 195)
S:efter Per Nilsson Dahlberg
S:Svenska Låtar Skåne
B:Svenska Låtar Skåne
R:Vals
Z:Patrik Månsson, 2009-01-03
O:Nymö, Skåne
M:3/4
L:1/8
K:D
| a2 ag fe | de fg e2 | a2 ag fe | de fg e2 | dc de fd |
(gf) ed e2 | dc de fd | (gf) ed e2 | a2 ag fe | d2 d2 d2 |

